X: 9
T: Down The Broom
R: reel
M: 4/4
L: 1/8
K: Amix
G | EAAB A2 (3Bcd | eggf (3ege dc |BGGA GEDE | GAcA dA B2 |
EAAB A2 (3Bcd | eggf ge d2 | dggf gdbg | (3bge dB BA A :|
g | aaea ageg | aeba agea | bgdg egde | gabg ageg |
aaea ageg | aeba agee | dgga bgag | gedB BA A :|


Tune 514	Setting 23074

